X: 1
T: the Aitken Drum
B: RSCDS Graded
Z: John Chambers <jc:trillian.mit.edu>Scotland
M: C
L: 1/8
K: G
[GB,][AC] \
| "G"[B2D] [B2D] [B2D] [AC][GB,] | "C"[E4C] [G3E][EC] \
| "G"[D2B,] [D2B,] "(Em)"[E2C] [G2E] | "Am"[B2G] [A2F] "D7"[A2F] [GB,][AC] \
| "G"[B2D] [B2D] [B2D] [AC][GB,] | "C"[E4C] [G3E][EC] \
| "G"[D2B,] [D2B,] "D7"[E2C] [F2C] | "G"[G6B,] :|
|: [GB,][AC] \
| "G"[B2D] [B2D] [B2D] [AC][GB,] \
| "C"[c4E] [e2G] [c2E] | "G"[B2D] [d2G] "(Em)"[B2D] [G2E] | "Am"[B2G] [A2F] "D7"[A2F] [GB,][AC] \
| "G"[B2D] [B2D] [B2D] [AC][GB,] | "C"[E4C] [G3E][EC] \
| "G"[D2B,] [D2B,] "D7"[E2C] [F2C] | "G"[G6B,] :|
